raw/symbols/op.svg

<svg width="42" height="42" viewBox="0 0 42 42" fill="none" xmlns="http://www.w3.org/2000/svg">
<circle cx="21" cy="21" r="20" fill="#FF0420"/>
<path d="M13.7383 27.3067C12.3458 27.3067 11.2056 26.9796 10.3177 26.3254C9.43925 25.6618 9 24.7086 9 23.4843C9 23.2226 9.02804 22.9142 9.08411 22.5404C9.23364 21.6993 9.44859 20.6899 9.72896 19.503C10.5233 16.2881 12.5794 14.6807 15.8878 14.6807C16.7849 14.6807 17.598 14.8302 18.3083 15.1386C19.0186 15.4283 19.5793 15.8769 19.9905 16.475C20.4017 17.0638 20.6073 17.7647 20.6073 18.5778C20.6073 18.8208 20.5793 19.1292 20.5232 19.503C20.3456 20.5404 20.14 21.5591 19.8877 22.5404C19.4765 24.1385 18.7756 25.3441 17.7662 26.1385C16.7663 26.9235 15.4205 27.3067 13.7383 27.3067ZM13.9906 24.7833C14.6448 24.7833 15.1962 24.5871 15.6541 24.2039C16.1214 23.8207 16.4578 23.232 16.6541 22.4282C16.9251 21.3254 17.1307 20.3722 17.2709 19.5498C17.3176 19.3068 17.3457 19.0544 17.3457 18.7928C17.3457 17.7274 16.7943 17.1946 15.6822 17.1946C15.028 17.1946 14.4672 17.3909 13.9999 17.7741C13.542 18.1573 13.2149 18.746 13.0186 19.5498C12.8037 20.3348 12.5981 21.2881 12.3831 22.4282C12.3364 22.6619 12.3084 22.9049 12.3084 23.1665C12.299 24.2506 12.8691 24.7833 13.9906 24.7833Z" fill="white"/>
<path d="M21.4207 27.1386C21.2899 27.1386 21.1964 27.1012 21.1217 27.0171C21.0656 26.9237 21.0469 26.8209 21.0656 26.6994L23.4861 15.2976C23.5048 15.1668 23.5702 15.064 23.6824 14.9799C23.7852 14.8958 23.8973 14.8584 24.0188 14.8584H28.6823C29.9814 14.8584 31.0187 15.1294 31.8038 15.6621C32.5982 16.2042 33 16.9799 33 17.9985C33 18.2883 32.9626 18.5967 32.8972 18.9144C32.6075 20.2602 32.0187 21.2508 31.1215 21.8957C30.2431 22.5405 29.0375 22.8583 27.5048 22.8583H25.1403L24.3366 26.6994C24.3086 26.8302 24.2525 26.933 24.1403 27.0171C24.0375 27.1012 23.9254 27.1386 23.8039 27.1386H21.4207ZM27.6263 20.4378C28.1216 20.4378 28.5421 20.3069 28.9066 20.0359C29.2804 19.7649 29.5234 19.3817 29.6449 18.877C29.6823 18.6808 29.701 18.5032 29.701 18.3537C29.701 18.0172 29.5982 17.7556 29.4019 17.578C29.2057 17.3911 28.8599 17.2976 28.3833 17.2976H26.2805L25.6169 20.4378H27.6263Z" fill="white"/>
</svg>

<svg xmlns="http://www.w3.org/2000/svg" width="42" height="42" fill="none"><circle cx="21" cy="21" r="20" fill="#FF0420"/><path fill="#fff" d="M13.738 27.307c-1.392 0-2.532-.327-3.42-.982C9.439 25.662 9 24.71 9 23.485c0-.262.028-.57.084-.945.15-.84.365-1.85.645-3.037.794-3.215 2.85-4.822 6.159-4.822.897 0 1.71.15 2.42.458.71.29 1.271.738 1.683 1.336.41.589.616 1.29.616 2.103 0 .243-.028.551-.084.925a37.952 37.952 0 0 1-.635 3.037c-.412 1.599-1.112 2.804-2.122 3.599-1 .785-2.345 1.168-4.028 1.168Zm.253-2.524c.654 0 1.205-.196 1.663-.58.467-.382.804-.971 1-1.775.271-1.103.477-2.056.617-2.878.047-.243.075-.496.075-.757 0-1.066-.552-1.598-1.664-1.598-.654 0-1.215.196-1.682.58-.458.382-.785.971-.981 1.775-.215.785-.42 1.738-.636 2.878a3.733 3.733 0 0 0-.075.738c-.009 1.085.561 1.617 1.683 1.617ZM21.42 27.139c-.13 0-.224-.038-.298-.122-.056-.093-.075-.196-.056-.318l2.42-11.401a.466.466 0 0 1 .196-.318.515.515 0 0 1 .337-.122h4.663c1.3 0 2.337.271 3.122.804.794.542 1.196 1.318 1.196 2.336 0 .29-.037.599-.103.916-.29 1.346-.878 2.337-1.775 2.982-.879.645-2.084.962-3.617.962H25.14l-.803 3.841a.501.501 0 0 1-.197.318.515.515 0 0 1-.336.122H21.42Zm6.206-6.701c.496 0 .916-.131 1.28-.402.374-.271.617-.654.739-1.159.037-.196.056-.374.056-.523 0-.337-.103-.598-.3-.776-.195-.187-.541-.28-1.018-.28h-2.102l-.664 3.14h2.01Z"/></svg>
